images/jaws/jaw-down.svg

<svg width="142" height="48" viewBox="0 0 142 48" fill="none" xmlns="http://www.w3.org/2000/svg">
<path d="M104.816 45.1474C145.404 47.49 141.04 19.2452 138.303 13.1557C136.95 10.1442 104.402 9.68771 71.5576 10.0053C44.2626 10.2693 16.7629 11.0678 6.79173 11.3788C4.26287 11.4577 2.22648 12.7885 2.11056 15.3159C1.88298 20.2774 2.85791 28.999 6.76731 35.7571C7.43471 36.9108 8.41623 37.8515 9.59722 38.4694C19.3981 43.5968 34.0206 43.3422 40.439 42.5069C49.1851 40.3056 56.3058 47.1426 64.4995 47.1426C71.1281 47.9681 78.3695 46.1758 85.1823 43.8827C90.1862 42.1985 98.3148 43.6327 102.629 44.778C103.337 44.966 104.084 45.1052 104.816 45.1474Z" fill="#F5F5F5"/>
<path d="M64.5613 46.6464L64.5305 46.6426H64.4995C61.0864 46.6426 57.8678 45.424 54.5321 44.1611C53.9748 43.9502 53.4143 43.738 52.8491 43.53C48.9492 42.0951 44.8656 40.8866 40.3457 42.0148C37.1676 42.426 31.9574 42.6943 26.328 42.2259C20.676 41.7556 14.6454 40.5461 9.829 38.0263C8.73191 37.4524 7.8201 36.5784 7.20011 35.5067C3.35411 28.8583 2.38517 20.2412 2.61003 15.3388C2.6614 14.2189 3.13096 13.3902 3.85484 12.8226C4.59064 12.2456 5.62071 11.9156 6.80731 11.8785C16.7772 11.5676 44.2728 10.7692 71.5624 10.5053C87.9828 10.3465 104.322 10.3813 116.721 10.8317C122.923 11.057 128.128 11.3859 131.861 11.8446C133.73 12.0742 135.212 12.3343 136.261 12.6245C136.786 12.77 137.183 12.9178 137.459 13.063C137.751 13.2169 137.833 13.3289 137.847 13.3606C138.502 14.8172 139.276 17.661 139.434 21.0758C139.591 24.4855 139.131 28.4258 137.356 32.096C133.837 39.3762 125.024 45.8129 104.845 44.6482C104.155 44.6084 103.442 44.4765 102.757 44.2947C100.579 43.7164 97.4401 43.0656 94.2096 42.7713C90.9916 42.4782 87.6246 42.5331 85.0228 43.4089C78.2215 45.698 71.0713 47.4571 64.5613 46.6464Z" stroke="#C7C7CC" stroke-opacity="0.6"/>
<path d="M5.54747 15.4488C6.40331 15.4062 7.13484 14.6184 7.66983 13.7438C8.34727 12.6364 8.44448 11.2974 8.34912 10.0027L7.75714 1.9656C6.97975 1.6315 6.28358 1.37545 5.66424 1.18216C3.16968 0.403653 1.34818 2.32736 1.63208 4.92512C2.14994 9.66351 4.16162 15.5179 5.54747 15.4488Z" fill="white" stroke="#E0E0E3" stroke-width="1.5"/>
<path d="M9.0711 1.85768C9.26304 1.86257 9.45832 1.87404 9.65584 1.89133C13.4844 2.22635 15.6954 6.0604 15.7298 9.90345L15.741 11.1535C15.7568 12.9211 14.3329 15.6548 12.8741 16.653C10.8385 18.0456 9.75671 16.2376 9.02269 13.883C7.70045 9.64153 7.44874 5.75426 7.54681 3.37434C7.58171 2.52721 8.22353 1.83606 9.0711 1.85768Z" fill="white" stroke="#E0E0E3" stroke-width="1.5"/>
<path d="M16.6788 3.56024C18.7911 3.4455 20.4836 3.46789 21.8126 3.56797C24.4637 3.7676 25.8007 6.02842 25.8006 8.68709L25.8006 12.175C25.8006 13.6071 25.4952 15.0355 24.5963 16.1505C22.8875 18.2704 20.0786 20.8161 19.1719 20.6772C18.3494 20.5511 17.0606 17.6637 16.2856 15.6311C16.0542 15.0242 15.9014 14.3883 15.8152 13.7446C15.1053 8.44219 15.1714 5.67845 15.4171 4.43961C15.5339 3.85059 16.0792 3.59281 16.6788 3.56024Z" fill="white" stroke="#E0E0E3" stroke-width="1.5"/>
<path d="M32.522 21.0597C35.5447 18.6495 37.6719 14.231 37.9531 11.78L37.8609 4.7174C37.8609 4.46461 31.8744 4.35238 27.6646 4.40423C26.6138 4.41717 25.7702 5.25562 25.7502 6.3063C25.7097 8.42793 25.6934 11.6643 25.8006 15.082C25.8697 17.287 26.4287 18.9582 27.1231 20.1677C28.2322 22.0998 30.7801 22.4486 32.522 21.0597Z" fill="white" stroke="#E0E0E3" stroke-width="1.5"/>
<path d="M40.1415 4.31434C44.2686 3.93487 49.4745 4.16064 52.6976 4.73782C53.1722 4.82282 53.4987 5.25046 53.4805 5.7323L53.2339 12.2387C53.2339 13.2486 53.0494 14.5552 52.7983 15.8369C52.2611 18.5789 50.7975 21.0655 48.4027 22.505C48.2579 22.592 48.1119 22.6781 47.9652 22.7631C44.9006 24.5379 40.9889 23.8493 39.7566 20.5292C38.229 16.4131 37.7542 10.9438 37.7264 7.01665C37.7165 5.61637 38.7471 4.44255 40.1415 4.31434Z" fill="white" stroke="#E0E0E3" stroke-width="1.5"/>
<path d="M63.9945 26.333C71.7581 22.8894 71.1667 14.1389 70.8201 4.90078C70.7977 4.2818 63.1183 3.85318 57.8865 4.13109C54.937 4.28776 53.1271 6.60366 53.1438 9.55731C53.2091 21.0906 57.52 25.5002 60.8218 26.6125C61.8611 26.9626 62.992 26.7776 63.9945 26.333Z" fill="white" stroke="#E0E0E3" stroke-width="1.5"/>
<path d="M136.453 15.4488C135.597 15.4062 134.865 14.6184 134.33 13.7438C133.653 12.6364 133.556 11.2974 133.651 10.0027L134.243 1.9656C135.02 1.6315 135.716 1.37545 136.336 1.18216C138.83 0.403653 140.652 2.32736 140.368 4.92512C139.85 9.66351 137.838 15.5179 136.453 15.4488Z" fill="white" stroke="#E0E0E3" stroke-width="1.5"/>
<path d="M132.925 1.85768C132.734 1.86257 132.538 1.87404 132.341 1.89133C128.512 2.22635 126.301 6.0604 126.267 9.90345L126.256 11.1535C126.24 12.9211 127.664 15.6548 129.123 16.653C131.158 18.0456 132.24 16.2376 132.974 13.883C134.296 9.64153 134.548 5.75426 134.45 3.37434C134.415 2.52721 133.773 1.83606 132.925 1.85768Z" fill="white" stroke="#E0E0E3" stroke-width="1.5"/>
<path d="M125.319 3.56023C123.207 3.4455 121.514 3.46789 120.186 3.56797C117.534 3.7676 116.197 6.02842 116.197 8.68709L116.197 12.175C116.198 13.6071 116.503 15.0355 117.402 16.1505C119.111 18.2704 121.919 20.8161 122.826 20.6772C123.649 20.5511 124.937 17.6637 125.712 15.6311C125.944 15.0242 126.097 14.3883 126.183 13.7446C126.893 8.44219 126.827 5.67845 126.581 4.43961C126.464 3.85059 125.919 3.59281 125.319 3.56023Z" fill="white" stroke="#E0E0E3" stroke-width="1.5"/>
<path d="M109.476 21.0597C106.453 18.6495 104.326 14.231 104.044 11.78L104.137 4.7174C104.137 4.46461 110.123 4.35238 114.333 4.40423C115.384 4.41717 116.227 5.25562 116.247 6.3063C116.288 8.42793 116.304 11.6643 116.197 15.082C116.128 17.287 115.569 18.9582 114.874 20.1677C113.765 22.0998 111.217 22.4486 109.476 21.0597Z" fill="white" stroke="#E0E0E3" stroke-width="1.5"/>
<path d="M101.856 4.31434C97.729 3.93487 92.5231 4.16064 89.3 4.73782C88.8253 4.82282 88.4988 5.25046 88.5171 5.7323L88.7636 12.2387C88.7636 13.2486 88.9482 14.5552 89.1993 15.8369C89.7365 18.5789 91.2001 21.0654 93.5948 22.505C93.7396 22.592 93.8856 22.6781 94.0324 22.7631C97.097 24.5379 101.009 23.8493 102.241 20.5292C103.769 16.4131 104.243 10.9438 104.271 7.01665C104.281 5.61637 103.251 4.44255 101.856 4.31434Z" fill="white" stroke="#E0E0E3" stroke-width="1.5"/>
<path d="M78.004 26.333C70.2404 22.8894 70.8318 14.1389 71.1785 4.90078C71.2009 4.2818 78.8802 3.85318 84.112 4.13109C87.0615 4.28776 88.8714 6.60366 88.8547 9.55731C88.7895 21.0906 84.4785 25.5002 81.1767 26.6125C80.1374 26.9626 79.0065 26.7776 78.004 26.333Z" fill="white" stroke="#E0E0E3" stroke-width="1.5"/>
</svg>

<svg width="142" height="48" fill="none" xmlns="http://www.w3.org/2000/svg"><path d="M104.816 45.147c40.588 2.343 36.224-25.902 33.487-31.991-1.353-3.012-33.901-3.468-66.745-3.15-27.295.263-54.795 1.062-64.766 1.373-2.53.079-4.566 1.41-4.681 3.937-.228 4.961.747 13.683 4.656 20.441a7.04 7.04 0 002.83 2.712c9.801 5.128 24.424 4.873 30.842 4.038 8.746-2.201 15.867 4.636 24.06 4.636 6.63.825 13.87-.967 20.683-3.26 5.004-1.684 13.133-.25 17.447.895.708.188 1.455.327 2.187.37z" fill="#F5F5F5"/><path d="M64.561 46.646l-.03-.003h-.032c-3.413 0-6.631-1.219-9.967-2.482-.557-.21-1.118-.423-1.683-.631-3.9-1.435-7.983-2.643-12.503-1.515-3.178.411-8.389.68-14.018.21-5.652-.47-11.683-1.679-16.499-4.199a6.54 6.54 0 01-2.629-2.52C3.354 28.859 2.385 20.242 2.61 15.34c.051-1.12.521-1.949 1.245-2.516.736-.577 1.766-.907 2.952-.944 9.97-.311 37.466-1.11 64.755-1.374 16.42-.159 32.76-.124 45.159.327 6.202.225 11.407.554 15.14 1.013 1.869.23 3.351.49 4.4.78.525.145.922.293 1.198.438.292.154.374.266.388.298.655 1.456 1.429 4.3 1.587 7.715.157 3.41-.303 7.35-2.078 11.02-3.519 7.28-12.332 13.717-32.511 12.552a10.64 10.64 0 01-2.088-.353c-2.178-.579-5.317-1.23-8.547-1.524-3.218-.293-6.585-.238-9.187.638-6.801 2.289-13.952 4.048-20.462 3.237z" stroke="#C7C7CC" stroke-opacity=".6"/><path d="M5.547 15.449c.856-.043 1.588-.83 2.123-1.705.677-1.108.774-2.447.68-3.741l-.593-8.037a21.69 21.69 0 00-2.093-.784C3.17.404 1.348 2.327 1.632 4.925c.518 4.739 2.53 10.593 3.915 10.524z" fill="#fff" stroke="#E0E0E3" stroke-width="1.5"/><path d="M9.071 1.858c.192.005.387.016.585.033 3.828.335 6.04 4.17 6.074 8.012l.011 1.25c.016 1.768-1.408 4.502-2.867 5.5-2.036 1.393-3.117-.415-3.851-2.77C7.7 9.642 7.449 5.754 7.547 3.374c.035-.847.677-1.538 1.524-1.516z" fill="#fff" stroke="#E0E0E3" stroke-width="1.5"/><path d="M16.679 3.56c2.112-.115 3.805-.092 5.134.008 2.65.2 3.988 2.46 3.988 5.12v3.487c0 1.432-.306 2.86-1.205 3.976-1.709 2.12-4.517 4.665-5.424 4.526-.823-.126-2.111-3.013-2.886-5.046a8.44 8.44 0 01-.47-1.886c-.71-5.303-.645-8.067-.399-9.305.117-.59.662-.847 1.262-.88z" fill="#fff" stroke="#E0E0E3" stroke-width="1.5"/><path d="M32.522 21.06c3.023-2.41 5.15-6.829 5.431-9.28l-.092-7.063c0-.252-5.987-.365-10.196-.313a1.934 1.934 0 00-1.915 1.902c-.04 2.122-.057 5.358.05 8.776.07 2.205.629 3.876 1.323 5.086 1.11 1.932 3.657 2.28 5.399.892z" fill="#fff" stroke="#E0E0E3" stroke-width="1.5"/><path d="M40.142 4.314c4.127-.38 9.332-.153 12.556.424a.963.963 0 01.782.994l-.246 6.507c0 1.01-.185 2.316-.436 3.598-.537 2.742-2 5.229-4.395 6.668-.145.087-.291.173-.438.258-3.064 1.775-6.976 1.086-8.208-2.234-1.528-4.116-2.003-9.585-2.03-13.512-.01-1.4 1.02-2.574 2.415-2.703z" fill="#fff" stroke="#E0E0E3" stroke-width="1.5"/><path d="M63.995 26.333c7.763-3.444 7.172-12.194 6.825-21.432-.022-.62-7.702-1.048-12.933-.77-2.95.157-4.76 2.473-4.743 5.426.065 11.534 4.376 15.943 7.678 17.056 1.04.35 2.17.165 3.172-.28zm72.458-10.884c-.856-.043-1.588-.83-2.123-1.705-.677-1.108-.774-2.447-.679-3.741l.592-8.037c.777-.335 1.473-.59 2.093-.784 2.494-.778 4.316 1.145 4.032 3.743-.518 4.739-2.53 10.593-3.915 10.524z" fill="#fff" stroke="#E0E0E3" stroke-width="1.5"/><path d="M132.925 1.858a9.48 9.48 0 00-.584.033c-3.829.335-6.04 4.17-6.074 8.012l-.011 1.25c-.016 1.768 1.408 4.502 2.867 5.5 2.035 1.393 3.117-.415 3.851-2.77 1.322-4.241 1.574-8.129 1.476-10.509-.035-.847-.677-1.538-1.525-1.516z" fill="#fff" stroke="#E0E0E3" stroke-width="1.5"/><path d="M125.319 3.56c-2.112-.115-3.805-.092-5.133.008-2.652.2-3.989 2.46-3.989 5.12v3.487c.001 1.432.306 2.86 1.205 3.976 1.709 2.12 4.517 4.665 5.424 4.526.823-.126 2.111-3.013 2.886-5.046a8.398 8.398 0 00.471-1.886c.71-5.303.644-8.067.398-9.305-.117-.59-.662-.847-1.262-.88z" fill="#fff" stroke="#E0E0E3" stroke-width="1.5"/><path d="M109.476 21.06c-3.023-2.41-5.15-6.829-5.432-9.28l.093-7.063c0-.252 5.986-.365 10.196-.313a1.933 1.933 0 011.914 1.902c.041 2.122.057 5.358-.05 8.776-.069 2.205-.628 3.876-1.323 5.086-1.109 1.932-3.657 2.28-5.398.892z" fill="#fff" stroke="#E0E0E3" stroke-width="1.5"/><path d="M101.856 4.314c-4.127-.38-9.333-.153-12.556.424a.962.962 0 00-.783.994l.247 6.507c0 1.01.184 2.316.435 3.598.538 2.742 2.001 5.228 4.396 6.668.145.087.29.173.437.258 3.065 1.775 6.977 1.086 8.209-2.234 1.528-4.116 2.002-9.585 2.03-13.512.01-1.4-1.02-2.574-2.415-2.703z" fill="#fff" stroke="#E0E0E3" stroke-width="1.5"/><path d="M78.004 26.333c-7.764-3.444-7.172-12.194-6.826-21.432.023-.62 7.702-1.048 12.934-.77 2.95.157 4.76 2.473 4.743 5.426-.066 11.534-4.377 15.943-7.678 17.056-1.04.35-2.17.165-3.173-.28z" fill="#fff" stroke="#E0E0E3" stroke-width="1.5"/></svg>
